; generated by PrusaSlicer 2.2.0+linux-x64 on 2020-04-19 at 12:51:18 UTC

; 

; external perimeters extrusion width = 0.45mm
; perimeters extrusion width = 0.45mm
; infill extrusion width = 0.45mm
; solid infill extrusion width = 0.45mm
; top infill extrusion width = 0.40mm
; first layer extrusion width = 0.70mm

M107
M104 S200 ; set temperature
G28 ; home all axes
G1 Z5 F5000 ; lift nozzle
M109 S200 ; set temperature and wait for it to be reached
G21 ; set units to millimeters
G90 ; use absolute coordinates
M82 ; use absolute distances for extrusion
G92 E0
; Filament gcode
G1 Z0.350 F7800.000
G1 E-2.00000 F2400.00000
G92 E0
G1 X75.663 Y71.258 F7800.000
G1 E2.00000 F2400.00000
G1 F1800.000
G1 X76.848 Y70.439 E2.13099
G1 X78.189 Y69.894 E2.26256
G1 X79.609 Y69.653 E2.39356
G1 X120.006 Y69.641 E6.06686
G1 X121.227 Y69.756 E6.17830
G1 X122.399 Y70.091 E6.28916
G1 X123.490 Y70.635 E6.40002
G1 X124.467 Y71.374 E6.51145
G1 X125.288 Y72.276 E6.62231
G1 X125.933 Y73.318 E6.73375
G1 X126.372 Y74.455 E6.84460
G1 X126.597 Y75.660 E6.95604
G1 X126.623 Y123.708 E11.32505
G1 X126.520 Y124.719 E11.41747
G1 X126.265 Y125.697 E11.50932
G1 X125.862 Y126.630 E11.60174
G1 X125.321 Y127.490 E11.69417
G1 X124.303 Y128.580 E11.82976
G1 X123.062 Y129.418 E11.96592
G1 X121.670 Y129.954 E12.10151
G1 X120.188 Y130.165 E12.23768
G1 X79.803 Y130.165 E15.90985
G1 X78.799 Y130.058 E16.00169
G1 X77.828 Y129.802 E16.09296
G1 X76.902 Y129.399 E16.18481
G1 X76.053 Y128.863 E16.27608
G1 X74.959 Y127.841 E16.41224
G1 X74.119 Y126.593 E16.54898
G1 X73.583 Y125.188 E16.68572
G1 X73.377 Y123.705 E16.82189
G1 X73.377 Y76.101 E21.15050
G1 X73.480 Y75.090 E21.24292
G1 X73.735 Y74.112 E21.33477
G1 X74.138 Y73.179 E21.42719
G1 X74.679 Y72.319 E21.51961
G1 X75.623 Y71.302 E21.64573
G1 E19.64573 F2400.00000
G92 E0
G1 X118.200 Y121.743 F7800.000
G1 E2.00000 F2400.00000
G1 F1800.000
G1 X81.800 Y121.743 E5.30988
G1 X81.800 Y115.605 E5.86803
G1 X118.200 Y115.605 E9.17791
G1 X118.200 Y121.683 E9.73061
G1 X118.825 Y122.368 F7800.000
G1 F1800.000
G1 X81.175 Y122.368 E13.15413
G1 X81.175 Y114.980 E13.82592
G1 X118.825 Y114.980 E17.24944
G1 X118.825 Y122.308 E17.91578
G1 X119.450 Y122.993 F7800.000
G1 F1800.000
G1 X80.550 Y122.993 E21.45294
G1 X80.550 Y114.355 E22.23838
G1 X119.450 Y114.355 E25.77554
G1 X119.450 Y122.933 E26.55553
G1 X119.051 Y122.964 F7800.000
G1 E24.55553 F2400.00000
G92 E0
G1 X81.987 Y120.280 F7800.000
G1 E2.00000 F2400.00000
G1 F1800.000
G1 X82.981 Y121.274 E2.12898
G1 X83.873 Y121.274 E2.21081
G1 X82.268 Y119.670 E2.41902
G1 X82.268 Y118.778 E2.50085
G1 X84.765 Y121.274 E2.82479
G1 X85.657 Y121.274 E2.90662
G1 X82.268 Y117.886 E3.34628
G1 X82.268 Y116.994 E3.42811
G1 X86.548 Y121.274 E3.98349
G1 X87.440 Y121.274 E4.06532
G1 X82.268 Y116.103 E4.73643
G1 X82.268 Y116.073 E4.73912
G1 X83.131 Y116.073 E4.81826
G1 X88.332 Y121.274 E5.49318
G1 X89.224 Y121.274 E5.57501
G1 X84.023 Y116.073 E6.24992
G1 X84.914 Y116.073 E6.33175
G1 X90.115 Y121.274 E7.00667
G1 X91.007 Y121.274 E7.08850
G1 X85.806 Y116.073 E7.76342
G1 X86.698 Y116.073 E7.84525
G1 X91.899 Y121.274 E8.52017
G1 X92.791 Y121.274 E8.60200
G1 X87.590 Y116.073 E9.27692
G1 X88.482 Y116.073 E9.35875
G1 X93.683 Y121.274 E10.03367
G1 X94.574 Y121.274 E10.11550
G1 X89.373 Y116.073 E10.79042
G1 X90.265 Y116.073 E10.87225
G1 X95.466 Y121.274 E11.54716
G1 X96.358 Y121.274 E11.62899
G1 X91.157 Y116.073 E12.30391
G1 X92.049 Y116.073 E12.38574
G1 X97.250 Y121.274 E13.06066
G1 X98.142 Y121.274 E13.14249
G1 X92.940 Y116.073 E13.81741
G1 X93.832 Y116.073 E13.89924
G1 X99.033 Y121.274 E14.57416
G1 X99.925 Y121.274 E14.65599
G1 X94.724 Y116.073 E15.33091
G1 X95.616 Y116.073 E15.41274
G1 X100.817 Y121.274 E16.08766
G1 X101.709 Y121.274 E16.16949
G1 X96.508 Y116.073 E16.84440
G1 X97.399 Y116.073 E16.92623
G1 X102.600 Y121.274 E17.60115
G1 X103.492 Y121.274 E17.68298
G1 X98.291 Y116.073 E18.35790
G1 X99.183 Y116.073 E18.43973
G1 X104.384 Y121.274 E19.11465
G1 X105.276 Y121.274 E19.19648
G1 X100.075 Y116.073 E19.87140
G1 X100.967 Y116.073 E19.95323
G1 X106.168 Y121.274 E20.62815
G1 X107.059 Y121.274 E20.70998
G1 X101.858 Y116.073 E21.38490
G1 X102.750 Y116.073 E21.46672
G1 X107.951 Y121.274 E22.14164
G1 X108.843 Y121.274 E22.22347
G1 X103.642 Y116.073 E22.89839
G1 X104.534 Y116.073 E22.98022
G1 X109.735 Y121.274 E23.65514
G1 X110.627 Y121.274 E23.73697
G1 X105.425 Y116.073 E24.41189
G1 X106.317 Y116.073 E24.49372
G1 X111.518 Y121.274 E25.16864
G1 X112.410 Y121.274 E25.25047
G1 X107.209 Y116.073 E25.92539
G1 X108.101 Y116.073 E26.00722
G1 X113.302 Y121.274 E26.68214
G1 X114.194 Y121.274 E26.76396
G1 X108.993 Y116.073 E27.43888
G1 X109.884 Y116.073 E27.52071
G1 X115.085 Y121.274 E28.19563
G1 X115.977 Y121.274 E28.27746
G1 X110.776 Y116.073 E28.95238
G1 X111.668 Y116.073 E29.03421
G1 X116.869 Y121.274 E29.70913
G1 X117.732 Y121.274 E29.78828
G1 X117.732 Y121.245 E29.79096
G1 X112.560 Y116.073 E30.46208
G1 X113.452 Y116.073 E30.54391
G1 X117.732 Y120.353 E31.09932
G1 X117.732 Y119.462 E31.18114
G1 X114.343 Y116.073 E31.62082
G1 X115.235 Y116.073 E31.70265
G1 X117.732 Y118.570 E32.02660
G1 X117.732 Y117.678 E32.10843
G1 X116.127 Y116.073 E32.31666
G1 X117.019 Y116.073 E32.39849
G1 X118.013 Y117.067 E32.52749
G1 E30.52749 F2400.00000
G92 E0
G1 X118.200 Y84.791 F7800.000
G1 E2.00000 F2400.00000
G1 F1800.000
G1 X81.800 Y84.791 E5.30988
G1 X81.800 Y78.066 E5.92137
G1 X118.200 Y78.066 E9.23125
G1 X118.200 Y84.731 E9.83728
G1 X118.825 Y85.416 F7800.000
G1 F1800.000
G1 X81.175 Y85.416 E13.26080
G1 X81.175 Y77.441 E13.98593
G1 X118.825 Y77.441 E17.40945
G1 X118.825 Y85.356 E18.12913
G1 X119.450 Y86.041 F7800.000
G1 F1800.000
G1 X80.550 Y86.041 E21.66629
G1 X80.550 Y76.816 E22.50506
G1 X119.450 Y76.816 E26.04222
G1 X119.450 Y85.981 E26.87554
G1 X119.051 Y86.010 F7800.000
G1 E24.87554 F2400.00000
G92 E0
G1 X83.253 Y84.604 F7800.000
G1 E2.00000 F2400.00000
G1 F1800.000
G1 X82.268 Y83.619 E2.12684
G1 X82.268 Y82.734 E2.20750
G1 X83.857 Y84.322 E2.41219
G1 X84.743 Y84.322 E2.49285
G1 X82.268 Y81.848 E2.81162
G1 X82.268 Y80.963 E2.89228
G1 X85.628 Y84.322 E3.32513
G1 X86.513 Y84.322 E3.40579
G1 X82.268 Y80.077 E3.95272
G1 X82.268 Y79.192 E4.03338
G1 X87.399 Y84.322 E4.69438
G1 X88.284 Y84.322 E4.77505
G1 X82.497 Y78.535 E5.52073
G1 X83.382 Y78.535 E5.60140
G1 X89.170 Y84.322 E6.34708
G1 X90.055 Y84.322 E6.42774
G1 X84.267 Y78.535 E7.17342
G1 X85.153 Y78.535 E7.25409
G1 X90.940 Y84.322 E7.99977
G1 X91.826 Y84.322 E8.08043
G1 X86.038 Y78.535 E8.82611
G1 X86.924 Y78.535 E8.90678
G1 X92.711 Y84.322 E9.65246
G1 X93.597 Y84.322 E9.73313
G1 X87.809 Y78.535 E10.47881
G1 X88.695 Y78.535 E10.55947
G1 X94.482 Y84.322 E11.30515
G1 X95.368 Y84.322 E11.38582
G1 X89.580 Y78.535 E12.13150
G1 X90.465 Y78.535 E12.21216
G1 X96.253 Y84.322 E12.95784
G1 X97.138 Y84.322 E13.03851
G1 X91.351 Y78.535 E13.78419
G1 X92.236 Y78.535 E13.86486
G1 X98.024 Y84.322 E14.61054
G1 X98.909 Y84.322 E14.69120
G1 X93.122 Y78.535 E15.43688
G1 X94.007 Y78.535 E15.51755
G1 X99.795 Y84.322 E16.26323
G1 X100.680 Y84.322 E16.34390
G1 X94.893 Y78.535 E17.08958
G1 X95.778 Y78.535 E17.17024
G1 X101.566 Y84.322 E17.91592
G1 X102.451 Y84.322 E17.99659
G1 X96.663 Y78.535 E18.74227
G1 X97.549 Y78.535 E18.82293
G1 X103.336 Y84.322 E19.56861
G1 X104.222 Y84.322 E19.64928
G1 X98.434 Y78.535 E20.39496
G1 X99.320 Y78.535 E20.47563
G1 X105.107 Y84.322 E21.22131
G1 X105.993 Y84.322 E21.30197
G1 X100.205 Y78.535 E22.04765
G1 X101.091 Y78.535 E22.12832
G1 X106.878 Y84.322 E22.87400
G1 X107.764 Y84.322 E22.95466
G1 X101.976 Y78.535 E23.70034
G1 X102.861 Y78.535 E23.78101
G1 X108.649 Y84.322 E24.52669
G1 X109.534 Y84.322 E24.60736
G1 X103.747 Y78.535 E25.35304
G1 X104.632 Y78.535 E25.43370
G1 X110.420 Y84.322 E26.17938
G1 X111.305 Y84.322 E26.26005
G1 X105.518 Y78.535 E27.00573
G1 X106.403 Y78.535 E27.08639
G1 X112.191 Y84.322 E27.83207
G1 X113.076 Y84.322 E27.91274
G1 X107.289 Y78.535 E28.65842
G1 X108.174 Y78.535 E28.73909
G1 X113.962 Y84.322 E29.48477
G1 X114.847 Y84.322 E29.56543
G1 X109.059 Y78.535 E30.31111
G1 X109.945 Y78.535 E30.39178
G1 X115.732 Y84.322 E31.13746
G1 X116.618 Y84.322 E31.21812
G1 X110.830 Y78.535 E31.96380
G1 X111.716 Y78.535 E32.04447
G1 X117.503 Y84.322 E32.79015
G1 X117.732 Y84.322 E32.81095
G1 X117.732 Y83.665 E32.87082
G1 X112.601 Y78.535 E33.53183
G1 X113.487 Y78.535 E33.61250
G1 X117.732 Y82.780 E34.15943
G1 X117.732 Y81.894 E34.24010
G1 X114.372 Y78.535 E34.67295
G1 X115.257 Y78.535 E34.75362
G1 X117.732 Y81.009 E35.07239
G1 X117.732 Y80.123 E35.15306
G1 X116.143 Y78.535 E35.35776
G1 X117.028 Y78.535 E35.43842
G1 X118.013 Y79.519 E35.56527
G1 Z0.650 F7800.000
G1 X119.004 Y85.572
G1 F3600.000
G1 X80.996 Y85.572 E37.39330
G1 X80.996 Y77.237 E37.79421
G1 X119.004 Y77.237 E39.62224
G1 X119.004 Y85.512 E40.02027
G1 X119.389 Y85.958 F7800.000
G1 F3600.000
G1 X80.611 Y85.958 E41.88540
G1 X80.611 Y76.851 E42.32340
G1 X119.389 Y76.851 E44.18853
G1 X119.389 Y85.898 E44.62365
G1 X119.775 Y86.344 F7800.000
G1 F1800.000
G1 X80.225 Y86.344 E46.52587
G1 X80.225 Y76.466 E47.00097
G1 X119.775 Y76.466 E48.90319
G1 X119.775 Y86.284 E49.37540
G1 X119.376 Y86.311 F7800.000
G1 X81.112 Y78.135
G1 F1200.000
G1 X81.720 Y77.526 E49.41693
G1 X82.268 Y77.526 E49.44333
G1 X81.285 Y78.508 E49.51035
G1 X81.285 Y79.055 E49.53675
G1 X82.815 Y77.526 E49.64110
G1 X83.362 Y77.526 E49.66750
G1 X81.285 Y79.602 E49.80919
G1 X81.285 Y80.150 E49.83559
G1 X83.909 Y77.526 E50.01462
G1 X84.456 Y77.526 E50.04102
G1 X81.285 Y80.697 E50.25738
G1 X81.285 Y81.244 E50.28378
G1 X85.003 Y77.526 E50.53747
G1 X85.550 Y77.526 E50.56387
G1 X81.285 Y81.791 E50.85490
G1 X81.285 Y82.338 E50.88130
G1 X86.097 Y77.526 E51.20966
G1 X86.644 Y77.526 E51.23606
G1 X81.285 Y82.885 E51.60176
G1 X81.285 Y83.432 E51.62815
G1 X87.192 Y77.526 E52.03119
G1 X87.739 Y77.526 E52.05758
G1 X81.285 Y83.979 E52.49795
G1 X81.285 Y84.526 E52.52435
G1 X88.286 Y77.526 E53.00205
G1 X88.833 Y77.526 E53.02845
G1 X81.285 Y85.074 E53.54348
G1 X81.285 Y85.283 E53.55360
G1 X81.623 Y85.283 E53.56988
G1 X89.380 Y77.526 E54.09922
G1 X89.927 Y77.526 E54.12562
G1 X82.170 Y85.283 E54.65496
G1 X82.717 Y85.283 E54.68136
G1 X90.474 Y77.526 E55.21070
G1 X91.021 Y77.526 E55.23710
G1 X83.264 Y85.283 E55.76644
G1 X83.811 Y85.283 E55.79284
G1 X91.569 Y77.526 E56.32218
G1 X92.116 Y77.526 E56.34858
G1 X84.358 Y85.283 E56.87792
G1 X84.906 Y85.283 E56.90432
G1 X92.663 Y77.526 E57.43366
G1 X93.210 Y77.526 E57.46006
G1 X85.453 Y85.283 E57.98940
G1 X86.000 Y85.283 E58.01580
G1 X93.757 Y77.526 E58.54514
G1 X94.304 Y77.526 E58.57154
G1 X86.547 Y85.283 E59.10088
G1 X87.094 Y85.283 E59.12728
G1 X94.851 Y77.526 E59.65662
G1 X95.398 Y77.526 E59.68302
G1 X87.641 Y85.283 E60.21236
G1 X88.188 Y85.283 E60.23876
G1 X95.945 Y77.526 E60.76810
G1 X96.493 Y77.526 E60.79449
G1 X88.735 Y85.283 E61.32383
G1 X89.282 Y85.283 E61.35023
G1 X97.040 Y77.526 E61.87957
G1 X97.587 Y77.526 E61.90597
G1 X89.830 Y85.283 E62.43531
G1 X90.377 Y85.283 E62.46171
G1 X98.134 Y77.526 E62.99105
G1 X98.681 Y77.526 E63.01745
G1 X90.924 Y85.283 E63.54679
G1 X91.471 Y85.283 E63.57319
G1 X99.228 Y77.526 E64.10253
G1 X99.775 Y77.526 E64.12893
G1 X92.018 Y85.283 E64.65827
G1 X92.565 Y85.283 E64.68467
G1 X100.322 Y77.526 E65.21401
G1 X100.869 Y77.526 E65.24041
G1 X93.112 Y85.283 E65.76975
G1 X93.659 Y85.283 E65.79615
G1 X101.417 Y77.526 E66.32549
G1 X101.964 Y77.526 E66.35189
G1 X94.206 Y85.283 E66.88123
G1 X94.754 Y85.283 E66.90763
G1 X102.511 Y77.526 E67.43697
G1 X103.058 Y77.526 E67.46337
G1 X95.301 Y85.283 E67.99271
G1 X95.848 Y85.283 E68.01911
G1 X103.605 Y77.526 E68.54845
G1 X104.152 Y77.526 E68.57485
G1 X96.395 Y85.283 E69.10419
G1 X96.942 Y85.283 E69.13059
G1 X104.699 Y77.526 E69.65993
G1 X105.246 Y77.526 E69.68633
G1 X97.489 Y85.283 E70.21567
G1 X98.036 Y85.283 E70.24206
G1 X105.793 Y77.526 E70.77140
G1 X106.341 Y77.526 E70.79780
G1 X98.583 Y85.283 E71.32714
G1 X99.130 Y85.283 E71.35354
G1 X106.888 Y77.526 E71.88288
G1 X107.435 Y77.526 E71.90928
G1 X99.678 Y85.283 E72.43862
G1 X100.225 Y85.283 E72.46502
G1 X107.982 Y77.526 E72.99436
G1 X108.529 Y77.526 E73.02076
G1 X100.772 Y85.283 E73.55010
G1 X101.319 Y85.283 E73.57650
G1 X109.076 Y77.526 E74.10584
G1 X109.623 Y77.526 E74.13224
G1 X101.866 Y85.283 E74.66158
G1 X102.413 Y85.283 E74.68798
G1 X110.170 Y77.526 E75.21732
G1 X110.717 Y77.526 E75.24372
G1 X102.960 Y85.283 E75.77306
G1 X103.507 Y85.283 E75.79946
G1 X111.265 Y77.526 E76.32880
G1 X111.812 Y77.526 E76.35520
G1 X104.055 Y85.283 E76.88454
G1 X104.602 Y85.283 E76.91094
G1 X112.359 Y77.526 E77.44028
G1 X112.906 Y77.526 E77.46668
G1 X105.149 Y85.283 E77.99602
G1 X105.696 Y85.283 E78.02242
G1 X113.453 Y77.526 E78.55176
G1 X114.000 Y77.526 E78.57816
G1 X106.243 Y85.283 E79.10750
G1 X106.790 Y85.283 E79.13390
G1 X114.547 Y77.526 E79.66324
G1 X115.094 Y77.526 E79.68963
G1 X107.337 Y85.283 E80.21897
G1 X107.884 Y85.283 E80.24537
G1 X115.641 Y77.526 E80.77471
G1 X116.189 Y77.526 E80.80111
G1 X108.431 Y85.283 E81.33045
G1 X108.979 Y85.283 E81.35685
G1 X116.736 Y77.526 E81.88619
G1 X117.283 Y77.526 E81.91259
G1 X109.526 Y85.283 E82.44193
G1 X110.073 Y85.283 E82.46833
G1 X117.830 Y77.526 E82.99767
G1 X118.377 Y77.526 E83.02407
G1 X110.620 Y85.283 E83.55341
G1 X111.167 Y85.283 E83.57981
G1 X118.715 Y77.736 E84.09485
G1 X118.715 Y78.283 E84.12125
G1 X111.714 Y85.283 E84.59895
G1 X112.261 Y85.283 E84.62535
G1 X118.715 Y78.830 E85.06572
G1 X118.715 Y79.377 E85.09212
G1 X112.808 Y85.283 E85.49516
G1 X113.355 Y85.283 E85.52156
G1 X118.715 Y79.924 E85.88726
G1 X118.715 Y80.471 E85.91366
G1 X113.903 Y85.283 E86.24203
G1 X114.450 Y85.283 E86.26842
G1 X118.715 Y81.018 E86.55946
G1 X118.715 Y81.565 E86.58586
G1 X114.997 Y85.283 E86.83956
G1 X115.544 Y85.283 E86.86595
G1 X118.715 Y82.113 E87.08232
G1 X118.715 Y82.660 E87.10872
G1 X116.091 Y85.283 E87.28775
G1 X116.638 Y85.283 E87.31415
G1 X118.715 Y83.207 E87.45584
G1 X118.715 Y83.754 E87.48224
G1 X117.185 Y85.283 E87.58660
G1 X117.732 Y85.283 E87.61300
G1 X118.715 Y84.301 E87.68003
G1 X118.715 Y84.848 E87.70643
G1 X118.106 Y85.457 E87.74796
G1 E85.74796 F2400.00000
G92 E0
G1 X119.004 Y114.829 F7800.000
G1 E2.00000 F2400.00000
G1 F3600.000
G1 X119.004 Y122.568 E2.37221
G1 X80.996 Y122.568 E4.20024
G1 X80.996 Y114.829 E4.57245
G1 X118.944 Y114.829 E6.39759
G1 X119.389 Y114.443 F7800.000
G1 F3600.000
G1 X119.389 Y122.953 E6.80690
G1 X80.611 Y122.953 E8.67202
G1 X80.611 Y114.443 E9.08132
G1 X119.329 Y114.443 E10.94356
G1 X119.775 Y114.058 F7800.000
G1 F1800.000
G1 X119.775 Y123.339 E11.38996
G1 X80.225 Y123.339 E13.29218
G1 X80.225 Y114.058 E13.73858
G1 X119.715 Y114.058 E15.63791
G1 X119.602 Y114.418 F7800.000
G1 X81.893 Y114.944
G1 F1200.000
G1 X81.285 Y115.552 E15.67933
G1 X81.285 Y116.099 E15.70567
G1 X82.266 Y115.118 E15.77252
G1 X82.813 Y115.118 E15.79886
G1 X81.285 Y116.645 E15.90296
G1 X81.285 Y117.192 E15.92930
G1 X83.359 Y115.118 E16.07065
G1 X83.906 Y115.118 E16.09699
G1 X81.285 Y117.738 E16.27560
G1 X81.285 Y118.285 E16.30194
G1 X84.452 Y115.118 E16.51779
G1 X84.999 Y115.118 E16.54414
G1 X81.285 Y118.831 E16.79725
G1 X81.285 Y119.378 E16.82359
G1 X85.545 Y115.118 E17.11395
G1 X86.092 Y115.118 E17.14029
G1 X81.285 Y119.924 E17.46790
G1 X81.285 Y120.471 E17.49425
G1 X86.638 Y115.118 E17.85911
G1 X87.185 Y115.118 E17.88546
G1 X81.285 Y121.017 E18.28758
G1 X81.285 Y121.564 E18.31392
G1 X87.731 Y115.118 E18.75329
G1 X88.278 Y115.118 E18.77963
G1 X81.285 Y122.110 E19.25626
G1 X81.285 Y122.278 E19.26436
G1 X81.664 Y122.278 E19.28260
G1 X88.824 Y115.118 E19.77068
G1 X89.371 Y115.118 E19.79702
G1 X82.210 Y122.278 E20.28510
G1 X82.757 Y122.278 E20.31145
G1 X89.917 Y115.118 E20.79953
G1 X90.464 Y115.118 E20.82587
G1 X83.303 Y122.278 E21.31395
G1 X83.850 Y122.278 E21.34029
G1 X91.010 Y115.118 E21.82838
G1 X91.557 Y115.118 E21.85472
G1 X84.396 Y122.278 E22.34280
G1 X84.943 Y122.278 E22.36914
G1 X92.103 Y115.118 E22.85722
G1 X92.650 Y115.118 E22.88356
G1 X85.489 Y122.278 E23.37165
G1 X86.036 Y122.278 E23.39799
G1 X93.196 Y115.118 E23.88607
G1 X93.743 Y115.118 E23.91241
G1 X86.583 Y122.278 E24.40049
G1 X87.129 Y122.278 E24.42684
G1 X94.289 Y115.118 E24.91492
